Suru++-Ubuntu/apps/symbolic/mozc-setup-symbolic.svg

<svg width="16" height="16" version="1.1" viewBox="0 0 4.23 4.23" xmlns="http://www.w3.org/2000/svg">
 <g transform="translate(0,-292.76665)">
  <path transform="matrix(.26458333 0 0 .26458333 0 292.76665)" d="m4.9960938 0s-0.0531159 1.034048-0.078125 2.5039062c-2.1014378 0.0476221-3.7910157 0.0605469-3.7910157 0.0605469l0.0078125 1.6816407s1.6718569-0.0087652 3.7734375-0.0488282c0.0017856 0.6843304 0.018306 1.4071069 0.0429688 2.1308594-0.5413799 0.1938718-1.072978 0.4223993-1.5703125 0.7246094-0.9052239 0.5498456-1.7874137 1.3072768-2.3261719 2.3398437-0.50912122 0.9755339-1.0405524 2.2920249-0.57421875 3.6328129 0.28987049 0.832327 0.96214395 1.416657 1.8085938 1.609375h0.0058594c1.5663024 0.344315 2.9461403-0.497218 3.9726562-1.107422 0.014988-0.008902 0.0280412-0.02031 0.0429688-0.029297 0.2072956 0.485361 0.4394531 1.011719 0.4394531 1.011719l1.53125-0.69336s-0.2733529-0.622628-0.5703125-1.373047c0.789924-0.702411 1.4814098-1.507921 2.0488281-2.363281 0.4323674-0.6517038 0.7535774-1.5258735 1.0625004-2.3476561 0.249146 0.0593386 0.539678-0.0108206 0.77539 0.0742187 0.727476 0.2626772 1.417452 0.6834133 1.800782 1.1953125 0.368122 0.4922079 0.586918 1.2002469 0.582031 1.8378909-0.004082 0.531439-0.21038 1.14221-0.53711 1.59375-0.355785 0.492056-0.997792 0.902409-1.707031 1.248047-0.560829 0.273637-1.272289 0.411465-2.0371092 0.539062v0.007813h-0.0058594c-0.365401 0.063874-1.5136719 0.08789-1.5136719 0.08789l0.0136719 1.683594s1.0638907 0.008293 1.7871094-0.117188c0.7749952-0.129259 1.6461902-0.278025 2.4882812-0.6875 0.803657-0.391672 1.701161-0.906792 2.332031-1.779296 0.529901-0.732322 0.85616-1.629687 0.863281-2.560547 0.007749-1.0089451-0.303341-2.0381606-0.921874-2.8652346-0.671749-0.8970331-1.641693-1.42839-2.570313-1.7636719-0.246353-0.0895748-0.508156-0.008077-0.759766-0.0742187 0.089806-0.288756 0.273438-0.8417969 0.273438-0.8417969l-1.617188-0.4648438s-0.2073311 0.6297063-0.3691402 1.1289063c-0.7567393-0.0570709-1.5129949-0.2970496-2.2441407-0.2207032-0.2668314 0.0279657-0.5344522 0.0740661-0.8027343 0.1210938-0.0145286-0.5798439-0.0411065-1.1631912-0.0429688-1.71875 1.7810789-0.047622 3.644486-0.1270386 5.011719-0.2460938 0.880918-0.071433 2.421875-0.34375 2.421875-0.34375l-0.285157-1.65625s-1.585923 0.2656995-2.283203 0.3261719c-1.289357 0.1069607-3.1040987 0.1864384-4.8574215 0.2363281 0.0190488-1.3981606 0.0585937-2.3847656 0.0585937-2.3847656l-1.6796874-0.087890625zm2.9980468 7.4199219c0.3565259 0.0290728 0.7020853 0.1323734 1.0703125 0.1425781-0.2447206 0.5902866-0.4909619 1.2592607-0.7089843 1.5878906-0.3662613 0.552122-0.7869787 1.0757804-1.2460938 1.5527344-0.0358791-0.128698-0.0933542-0.291226-0.1132812-0.394531-0.1432678-0.7429538-0.2358985-1.7087156-0.2949219-2.7421878 0.3083888-0.0627099 0.620122-0.1118926 0.9316406-0.1445312 0.1223511-0.0127559 0.2424862-0.0116441 0.3613281-0.0019531zm-2.9492187 0.6582031c0.0673081 0.9213641 0.1581815 1.8062783 0.3007812 2.546875 0.0747393 0.387603 0.2017 0.82415 0.3476563 1.261719-0.0975419 0.064759-0.18929 0.141914-0.2890625 0.201172-0.9822769 0.583937-2.0223456 1.062521-2.7402344 0.908203-0.1992684-0.045355-0.5358733-0.340243-0.5976563-0.517578-0.1938213-0.557292 0.059613-1.496335 0.4804688-2.302735 0.3409686-0.6534801 0.9855458-1.2543414 1.7050781-1.691406 0.2503911-0.1521552 0.5163911-0.2863627 0.7929688-0.40625z" style="fill:#808080"/>
 </g>
</svg>

<svg xmlns="http://www.w3.org/2000/svg" width="16" height="16" version="1.1" viewBox="0 0 4.23 4.23">
 <g transform="translate(0,-292.76665)">
  <path d="M 4.9960938 0 C 4.9960938 0 4.9429779 1.034048 4.9179688 2.5039062 C 2.816531 2.5515283 1.1269531 2.5644531 1.1269531 2.5644531 L 1.1347656 4.2460938 C 1.1347656 4.2460938 2.8066225 4.2373286 4.9082031 4.1972656 C 4.9099887 4.881596 4.9265091 5.6043725 4.9511719 6.328125 C 4.409792 6.5219968 3.8781939 6.7505243 3.3808594 7.0527344 C 2.4756355 7.60258 1.5934457 8.3600112 1.0546875 9.3925781 C 0.54556628 10.368112 0.014135108 11.684603 0.48046875 13.025391 C 0.77033924 13.857718 1.4426127 14.442048 2.2890625 14.634766 L 2.2949219 14.634766 C 3.8612243 14.979081 5.2410622 14.137548 6.2675781 13.527344 C 6.2825661 13.518442 6.2956193 13.507034 6.3105469 13.498047 C 6.5178425 13.983408 6.75 14.509766 6.75 14.509766 L 8.28125 13.816406 C 8.28125 13.816406 8.0078971 13.193778 7.7109375 12.443359 C 8.5008615 11.740948 9.1923473 10.935438 9.7597656 10.080078 C 10.192133 9.4283742 10.513343 8.5542045 10.822266 7.7324219 C 11.071412 7.7917605 11.361944 7.7216013 11.597656 7.8066406 C 12.325132 8.0693178 13.015108 8.4900539 13.398438 9.0019531 C 13.76656 9.494161 13.985356 10.2022 13.980469 10.839844 C 13.976387 11.371283 13.770089 11.982054 13.443359 12.433594 C 13.087574 12.92565 12.445567 13.336003 11.736328 13.681641 C 11.175499 13.955278 10.464039 14.093106 9.6992188 14.220703 L 9.6992188 14.228516 L 9.6933594 14.228516 C 9.3279584 14.29239 8.1796875 14.316406 8.1796875 14.316406 L 8.1933594 16 C 8.1933594 16 9.2572501 16.008293 9.9804688 15.882812 C 10.755464 15.753553 11.626659 15.604787 12.46875 15.195312 C 13.272407 14.80364 14.169911 14.28852 14.800781 13.416016 C 15.330682 12.683694 15.656941 11.786329 15.664062 10.855469 C 15.671811 9.8465239 15.360721 8.8173084 14.742188 7.9902344 C 14.070439 7.0932013 13.100495 6.5618444 12.171875 6.2265625 C 11.925522 6.1369877 11.663719 6.2184855 11.412109 6.1523438 C 11.501915 5.8635878 11.685547 5.3105469 11.685547 5.3105469 L 10.068359 4.8457031 C 10.068359 4.8457031 9.8610279 5.4754094 9.6992188 5.9746094 C 8.9424795 5.9175385 8.1862239 5.6775598 7.4550781 5.7539062 C 7.1882467 5.7818719 6.9206259 5.8279723 6.6523438 5.875 C 6.6378152 5.2951561 6.6112373 4.7118088 6.609375 4.15625 C 8.3904539 4.108628 10.253861 4.0292114 11.621094 3.9101562 C 12.502012 3.8387232 14.042969 3.5664062 14.042969 3.5664062 L 13.757812 1.9101562 C 13.757812 1.9101562 12.171889 2.1758557 11.474609 2.2363281 C 10.185252 2.3432888 8.3705103 2.4227665 6.6171875 2.4726562 C 6.6362363 1.0744956 6.6757812 0.087890625 6.6757812 0.087890625 L 4.9960938 0 z M 7.9941406 7.4199219 C 8.3506665 7.4489947 8.6962259 7.5522953 9.0644531 7.5625 C 8.8197325 8.1527866 8.5734912 8.8217607 8.3554688 9.1503906 C 7.9892075 9.7025126 7.5684901 10.226171 7.109375 10.703125 C 7.0734959 10.574427 7.0160208 10.411899 6.9960938 10.308594 C 6.852826 9.5656402 6.7601953 8.5998784 6.7011719 7.5664062 C 7.0095607 7.5036963 7.3212939 7.4545136 7.6328125 7.421875 C 7.7551636 7.4091191 7.8752987 7.4102309 7.9941406 7.4199219 z M 5.0449219 8.078125 C 5.11223 8.9994891 5.2031034 9.8844033 5.3457031 10.625 C 5.4204424 11.012603 5.5474031 11.44915 5.6933594 11.886719 C 5.5958175 11.951478 5.5040694 12.028633 5.4042969 12.087891 C 4.42202 12.671828 3.3819513 13.150412 2.6640625 12.996094 C 2.4647941 12.950739 2.1281892 12.655851 2.0664062 12.478516 C 1.8725849 11.921224 2.1260192 10.982181 2.546875 10.175781 C 2.8878436 9.5223009 3.5324208 8.9214396 4.2519531 8.484375 C 4.5023442 8.3322198 4.7683442 8.1980123 5.0449219 8.078125 z" transform="matrix(0.26458333,0,0,0.26458333,0,292.76665)" style="fill:#808080"/>
 </g>
</svg>
